src/assets/duotone/TimerStart.svg

<svg width="24" height="24" viewBox="0 0 24 24"  xmlns="http://www.w3.org/2000/svg">
<path d="M12 13.75C11.59 13.75 11.25 13.41 11.25 13V8C11.25 7.59 11.59 7.25 12 7.25C12.41 7.25 12.75 7.59 12.75 8V13C12.75 13.41 12.41 13.75 12 13.75Z" />
<path d="M14.8901 3.45H9.11014C8.71014 3.45 8.39014 3.13 8.39014 2.73C8.39014 2.33 8.71014 2 9.11014 2H14.8901C15.2901 2 15.6101 2.32 15.6101 2.72C15.6101 3.12 15.2901 3.45 14.8901 3.45Z" />
<path opacity="0.4" d="M15.0001 19.9702V17.0302C15.0001 15.7602 15.7601 15.0002 17.0301 15.0002H19.9701C20.1601 15.0002 20.3301 15.0202 20.5001 15.0602C20.6101 14.5002 20.6701 13.9202 20.6701 13.3302C20.6701 8.55016 16.7801 4.66016 12.0001 4.66016C7.22008 4.66016 3.33008 8.55016 3.33008 13.3302C3.33008 18.1102 7.22008 22.0002 12.0001 22.0002C13.2101 22.0002 14.3601 21.7502 15.4101 21.3002C15.1501 20.9602 15.0001 20.5202 15.0001 19.9702Z" />
<path d="M19.97 15H17.03C15.76 15 15 15.76 15 17.03V19.97C15 21.24 15.76 22 17.03 22H19.97C21.24 22 22 21.24 22 19.97V17.03C22 15.76 21.24 15 19.97 15ZM19.69 19.46L18.51 20.14C18.27 20.28 18.03 20.35 17.81 20.35C17.64 20.35 17.49 20.31 17.35 20.23C17.03 20.04 16.85 19.67 16.85 19.18V17.82C16.85 17.33 17.03 16.96 17.35 16.77C17.67 16.58 18.08 16.62 18.51 16.86L19.69 17.54C20.11 17.79 20.35 18.13 20.35 18.5C20.35 18.87 20.12 19.21 19.69 19.46Z" />
</svg>

<?xml version="1.0" encoding="UTF-8"?>
<svg width="24" height="24" viewBox="0 0 24 24" xmlns="http://www.w3.org/2000/svg">
 <path d="m12 13.75c-0.41 0-0.75-0.34-0.75-0.75v-5c0-0.41 0.34-0.75 0.75-0.75s0.75 0.34 0.75 0.75v5c0 0.41-0.34 0.75-0.75 0.75z"/>
 <path d="m14.89 3.45h-5.78c-0.4 0-0.72-0.32-0.72-0.72s0.32-0.73 0.72-0.73h5.78c0.4 0 0.72 0.32 0.72 0.72s-0.32 0.73-0.72 0.73z"/>
 <path d="m15 19.97v-2.94c0-1.27 0.76-2.03 2.03-2.03h2.94c0.19 0 0.36 0.02 0.53 0.06 0.11-0.56 0.17-1.14 0.17-1.73 0-4.78-3.89-8.67-8.67-8.67-4.78 0-8.67 3.89-8.67 8.67 0 4.78 3.89 8.67 8.67 8.67 1.21 0 2.36-0.25 3.41-0.7-0.26-0.34-0.41-0.78-0.41-1.33z" opacity=".4"/>
 <path d="m19.97 15h-2.94c-1.27 0-2.03 0.76-2.03 2.03v2.94c0 1.27 0.76 2.03 2.03 2.03h2.94c1.27 0 2.03-0.76 2.03-2.03v-2.94c0-1.27-0.76-2.03-2.03-2.03zm-0.28 4.46-1.18 0.68c-0.24 0.14-0.48 0.21-0.7 0.21-0.17 0-0.32-0.04-0.46-0.12-0.32-0.19-0.5-0.56-0.5-1.05v-1.36c0-0.49 0.18-0.86 0.5-1.05s0.73-0.15 1.16 0.09l1.18 0.68c0.42 0.25 0.66 0.59 0.66 0.96s-0.23 0.71-0.66 0.96z"/>
</svg>
